dist/img/svg/s_discount_decor_l.svg

<svg width="76" height="124" viewBox="0 0 76 124" fill="none" xmlns="http://www.w3.org/2000/svg">
<g clip-path="url(#clip0_514_15673)">
<path fill-rule="evenodd" clip-rule="evenodd" d="M73.2846 82.8348H59.0153C57.2904 82.8348 56.0014 81.2599 56.3595 79.5894L63.8631 44.6047C64.2211 42.9342 62.9353 41.3592 61.2073 41.3592H46.9816C45.2535 41.3592 43.9677 39.7843 44.3257 38.1138L51.8355 3.13215C52.1936 1.46166 50.9077 -0.113281 49.1797 -0.113281H-49.2638C-50.5466 -0.113281 -51.6519 0.774359 -51.9196 2.01644L-54.6844 14.8965C-54.9491 16.1355 -56.0544 17.0231 -57.3372 17.0262L-144.681 17.1587C-145.961 17.1587 -147.066 18.0464 -147.334 19.2884L-171.94 133.868C-172.298 135.538 -171.012 137.113 -169.284 137.113H-83.0829C-81.797 137.113 -80.6855 136.22 -80.424 134.974L-78.6306 126.449C-78.369 125.204 -77.2575 124.31 -75.9716 124.31H23.6052C24.888 124.31 25.9933 123.423 26.261 122.181L34.2597 84.9615C34.5275 83.7194 35.6327 82.8317 36.9155 82.8317H52.3119C54.0399 82.8317 55.3258 84.4067 54.9677 86.0772L47.4486 121.065C47.0905 122.735 48.3733 124.307 50.0982 124.31L65.781 124.341C67.0731 124.341 68.1878 123.447 68.4462 122.193L75.9436 86.0556C76.2892 84.3882 75.0033 82.8287 73.2846 82.8287V82.8348Z" fill="currentColor"/>
</g>
<defs>
<clipPath id="clip0_514_15673">
<rect width="248" height="137" fill="white" transform="translate(-172)"/>
</clipPath>
</defs>
</svg>

<svg width="76" height="124" viewBox="0 0 76 124" fill="none" xmlns="http://www.w3.org/2000/svg"><g clip-path="url(#clip0_514_15673)"><path fill-rule="evenodd" clip-rule="evenodd" d="M73.285 82.835h-14.27c-1.725 0-3.014-1.575-2.656-3.246l7.504-34.984c.358-1.67-.928-3.246-2.656-3.246H46.982c-1.728 0-3.014-1.575-2.656-3.245l7.51-34.982c.358-1.67-.928-3.245-2.656-3.245h-98.444a2.709 2.709 0 00-2.656 2.13l-2.764 12.88a2.71 2.71 0 01-2.653 2.13l-87.344.132c-1.28 0-2.385.887-2.653 2.13l-24.606 114.579c-.358 1.67.928 3.245 2.656 3.245h86.201a2.709 2.709 0 002.659-2.139l1.793-8.525a2.71 2.71 0 012.66-2.139h99.576a2.708 2.708 0 002.656-2.129l7.999-37.22a2.71 2.71 0 012.656-2.13h15.396c1.728 0 3.014 1.576 2.656 3.246l-7.52 34.988c-.358 1.67.925 3.242 2.65 3.245l15.683.031a2.708 2.708 0 002.665-2.148l7.498-36.137c.345-1.668-.94-3.227-2.66-3.227v.006z" fill="currentColor"/></g><defs><clipPath id="clip0_514_15673"><path fill="#fff" transform="translate(-172)" d="M0 0h248v137H0z"/></clipPath></defs></svg>
